X:102
T: NICHT LOBENSWUERDIG IST DER MANN
N: E0700B
O: Europa, Mitteleuropa, Deutschland
R: Liebes - Lied, Leid, Klage
M: 4/4
L: 1/4
K: D
A, | A,A,F,D, | E,E,E,
A, | A,A,F,D, | E,3
E | EECA, | DDD
F | EECA, | D2z

